X: 40249
T: Titanic, The
R: jig
M: 6/8
K: Dmajor
d2B BAB|GAB E2D|E2A AGA|E2G FED|
G2B BAB|GAB E2D|G2B dBA|1 GED Bge:|2 GED E3||
GEE {c}BEE|GEE {c}BGE|FDD ~A2A|ded BAF|
GEE BGE|GAB dBA|G2B dBA|FED E3:|

